packages/katcn/src/icons/svg/video-solid.svg

<svg width="24" height="25" viewBox="0 0 24 25" fill="none" xmlns="http://www.w3.org/2000/svg">
<path d="M11.5 5.20801H4.4C2.5 5.20801 1 6.70801 1 8.60801V15.408C1 17.308 2.5 18.808 4.4 18.808H11.5C13.4 18.808 14.9 17.308 14.9 15.408V8.60801C15 6.70801 13.4 5.20801 11.5 5.20801Z" fill="black"/>
<path d="M22 6.60801C21.3 6.20801 20.4 6.20801 19.7 6.60801L19.6 6.70801L17 8.50801C16.7 8.70801 16.6 9.00801 16.6 9.30801V14.908C16.6 15.208 16.8 15.508 17 15.708L19.5 17.508L19.6 17.608C19.9 17.808 20.3 17.908 20.7 17.908C21.1 17.908 21.6 17.808 21.9 17.608C22.5 17.208 22.9 16.508 22.9 15.808V8.40801C23 7.70801 22.6 7.00801 22 6.60801Z" fill="black"/>
</svg>

<svg xmlns="http://www.w3.org/2000/svg" fill="none" viewBox="0 0 24 25"><path fill="#000" d="M11.5 5.208H4.4c-1.9 0-3.4 1.5-3.4 3.4v6.8c0 1.9 1.5 3.4 3.4 3.4h7.1c1.9 0 3.4-1.5 3.4-3.4v-6.8c.1-1.9-1.5-3.4-3.4-3.4m10.5 1.4c-.7-.4-1.6-.4-2.3 0l-.1.1-2.6 1.8c-.3.2-.4.5-.4.8v5.6c0 .3.2.6.4.8l2.5 1.8.1.1c.3.2.7.3 1.1.3s.9-.1 1.2-.3c.6-.4 1-1.1 1-1.8v-7.4c.1-.7-.3-1.4-.9-1.8"/></svg>
